Point/img/plus.svg

<svg width="49" height="49" viewBox="0 0 49 49" fill="none" xmlns="http://www.w3.org/2000/svg">
<path d="M24.9412 25L24.9412 0.999999M0.941161 25L24.9412 25L0.941161 25ZM24.9412 25L48.9412 25L24.9412 25ZM24.9412 25L24.9412 49L24.9412 25Z" stroke="#00325A" stroke-width="2" stroke-linecap="round"/>
</svg>

<svg width="49" height="49" fill="none" xmlns="http://www.w3.org/2000/svg"><path d="M24.941 25V1m-24 24h24-24zm24 0h24-24zm0 0v24-24z" stroke="#00325A" stroke-width="2" stroke-linecap="round"/></svg>
